X:16
T:Valse de Bruges (B. Le Tron)
C:Trad 1, 102
M:3/4
L:1/8
K:G
DE FD FA|DF AD FA|cB GE Bc|A2 FA EF|\
DE FD FA|DF AD FA|
cB GE Bc|1 d2 Bd GB:|2 d2 (3ddd dd||\
|:ed cG de|dB GB dB|
cA AA cA|FA cF Ac|\
ed cG de|dB GB dB|c2 A2G2|E2 GE BE:|
